X: 3
T: The Trip To Cullenstown
R: reel
M: 4/4
L: 1/8
K: Gmaj
|: B3d eddB| BddB AGGE | DBBA BAGE | GABG BAA2 |Bdde dBAG | BAGA GEDG | B2BA GEDE | DEGA BGG2 :||: Bdde ceed | BddB AGGE | DBBA Bdef | gedB BAA2 |Bdde dee2 | BAGA GEDG | B2BA GEDE | DEGA BGG2 :|


Tune 2996	Setting 2996

